modules/coreui-icons-free/icons/battery-5.svg

<!-- Generated by IcoMoon.io -->
<svg version="1.1" xmlns="http://www.w3.org/2000/svg" width="24" height="24" viewBox="0 0 24 24">
<title>battery-5</title>
<path d="M3.75 7.5h1.5v9.375h-1.5v-9.375z"></path>
<path d="M6.75 7.5h1.5v9.375h-1.5v-9.375z"></path>
<path d="M9.75 7.5h1.5v9.375h-1.5v-9.375z"></path>
<path d="M12.75 7.5h1.5v9.375h-1.5v-9.375z"></path>
<path d="M15.75 7.5h1.5v9.375h-1.5v-9.375z"></path>
<path d="M20.25 8.25v-2.644c-0.006-0.612-0.504-1.106-1.117-1.106-0.003 0-0.006 0-0.009 0h-17.25c-0.002-0-0.005-0-0.008-0-0.613 0-1.111 0.494-1.117 1.105v13.164c0.006 0.612 0.504 1.106 1.117 1.106 0.003 0 0.006 0 0.009-0h17.25c0.002 0 0.005 0 0.008 0 0.613 0 1.111-0.494 1.117-1.105v-2.645h3v-7.875zM21.75 14.625h-3v3.75h-16.501v-12.375h16.501v3.75h3z"></path>
</svg>

<svg xmlns="http://www.w3.org/2000/svg" width="24" height="24" viewBox="0 0 24 24"><path d="M3.75 7.5h1.5v9.375h-1.5V7.5zM6.75 7.5h1.5v9.375h-1.5V7.5zM9.75 7.5h1.5v9.375h-1.5V7.5zM12.75 7.5h1.5v9.375h-1.5V7.5zM15.75 7.5h1.5v9.375h-1.5V7.5z"/><path d="M20.25 8.25V5.606A1.117 1.117 0 0019.133 4.5H1.866c-.613 0-1.111.494-1.117 1.105v13.164a1.117 1.117 0 001.117 1.106h17.267c.613 0 1.111-.494 1.117-1.105v-2.645h3V8.25zm1.5 6.375h-3v3.75H2.249V6H18.75v3.75h3z"/></svg>
